X: 40049
T: Throw Another Potato On The Fire, Edith
R: reel
M: 4/4
K: Dmajor
D2 AF BGAF|D2 =cA BGGB|Aaag bgag|egdB =cBAF|
D2 AF BGAF|D2 =cA BGGB|Aaag gaed|1 cABc dBAF:|2 cABc decd||
|:Bg (3ggg Bged|cAce aecA|d2fd c2 ec|Abag fedc|
Bg (3ggg Bged|cAce aecA|daed caec|1 Bcde fedc:|2 BcdB AGFE||

